X: 108101
Q:"Strathspey."
M: C
L: 1/16
K: A
[|\
vA,4 uC4 EE3 E3uF | vA3vBuc3uB {B}A4 (Ac3) |\
vd4 ud3uf veuc3 vc3vA | vB3uc dcBA {G}F4 (Ff3) |]\
vfedc va3uc vb3vc ua4 | fedc a3uc f2e2d2c2 |\
fb3 b3f a2g2f2e2 |\
vfedc va3uc vb3vc ua4 | fedc a3uc f2e2d2c2 |\
defg a3e f2e2d2c2 | B3c dcBA {G}F4 (FA3) |]


